humanity-icon-theme/Humanity/mimes/16/text-x-generic-template.svg

<?xml version="1.0" encoding="UTF-8" standalone="no"?>
<!-- Created with Inkscape (http://www.inkscape.org/) -->

<svg
   xmlns:svg="http://www.w3.org/2000/svg"
   xmlns="http://www.w3.org/2000/svg"
   xmlns:xlink="http://www.w3.org/1999/xlink"
   version="1.1"
   width="16"
   height="16"
   id="svg3150">
  <defs
     id="defs3152">
    <linearGradient
       x1="-51.786404"
       y1="50.786446"
       x2="-51.786404"
       y2="2.9062471"
       id="linearGradient4547"
       xlink:href="#linearGradient2490"
       gradientUnits="userSpaceOnUse"
       gradientTransform="matrix(0.3000362,0,0,0.3120485,21.157141,-0.3741276)" />
    <linearGradient
       x1="25.132275"
       y1="6.7287393"
       x2="25.132275"
       y2="47.013336"
       id="linearGradient4545"
       xlink:href="#linearGradient3993"
       gradientUnits="userSpaceOnUse"
       gradientTransform="matrix(0.3715633,0,0,0.3334383,-0.9175205,-0.0025171)" />
    <linearGradient
       id="linearGradient4559">
      <stop
         id="stop4561"
         style="stop-color:#c0c0c0;stop-opacity:1"
         offset="0" />
      <stop
         id="stop4563"
         style="stop-color:#949492;stop-opacity:1"
         offset="1" />
    </linearGradient>
    <linearGradient
       x1="17.288921"
       y1="2.184907"
       x2="15.179585"
       y2="5.8214641"
       id="linearGradient4565"
       xlink:href="#linearGradient4559"
       gradientUnits="userSpaceOnUse"
       gradientTransform="matrix(0.6844293,0,0,0.6820072,-0.2131519,0.1569169)" />
    <linearGradient
       id="linearGradient8589">
      <stop
         id="stop8591"
         style="stop-color:#fefefe;stop-opacity:1"
         offset="0" />
      <stop
         id="stop8593"
         style="stop-color:#cbcbcb;stop-opacity:1"
         offset="1" />
    </linearGradient>
    <linearGradient
       x1="32.892288"
       y1="8.0590115"
       x2="36.358372"
       y2="5.4565363"
       id="linearGradient4543"
       xlink:href="#linearGradient8589"
       gradientUnits="userSpaceOnUse"
       gradientTransform="matrix(0.3707081,0,0,0.3548465,-0.8566575,-0.04895116)" />
    <linearGradient
       id="linearGradient3993">
      <stop
         id="stop3995"
         style="stop-color:#a3c0d0;stop-opacity:1"
         offset="0" />
      <stop
         id="stop4001"
         style="stop-color:#427da1;stop-opacity:1"
         offset="1" />
    </linearGradient>
    <linearGradient
       id="linearGradient2490">
      <stop
         id="stop2492"
         style="stop-color:#2e4a5a;stop-opacity:1"
         offset="0" />
      <stop
         id="stop2494"
         style="stop-color:#6e8796;stop-opacity:1"
         offset="1" />
    </linearGradient>
  </defs>
  <g
     id="layer1">
    <path
       d="m 1.4976268,0.49762721 c 2.980045,0 4.9376418,0 7.9176887,0 0.522766,0.16184396 4.3536885,2.61362219 5.0870585,3.89029659 0,3.907463 0,7.2069842 0,11.1144502 -4.334914,0 -8.6698338,0 -13.0047472,0 0,-5.001584 0,-10.0031638 0,-15.00474679 z"
       id="rect2594"
       style="fill:url(#linearGradient4545);fill-opacity:1;stroke:url(#linearGradient4547);stroke-width:0.9952535;stroke-linecap:butt;stroke-linejoin:round;stroke-miterlimit:4;stroke-opacity:1;stroke-dasharray:none;stroke-dashoffset:0;display:inline" />
    <g
       id="g2897"
       style="opacity:0.81000001">
      <path
         d="M 13.5185,13.5185 2.4815,13.4815"
         id="path3296"
         style="opacity:0.15;fill:none;stroke:#ffffff;stroke-width:0.963;stroke-linecap:square;stroke-linejoin:round;stroke-miterlimit:4;stroke-opacity:1;stroke-dasharray:none" />
      <path
         d="M 13.5185,11.5185 2.4815,11.4815"
         id="path2851"
         style="opacity:0.15;fill:none;stroke:#ffffff;stroke-width:0.963;stroke-linecap:square;stroke-linejoin:round;stroke-miterlimit:4;stroke-opacity:1;stroke-dasharray:none" />
      <path
         d="M 8.5,3.517498 2.4815,3.480998"
         id="path2853"
         style="opacity:0.15;fill:none;stroke:#ffffff;stroke-width:0.963;stroke-linecap:square;stroke-linejoin:round;stroke-miterlimit:4;stroke-opacity:1;stroke-dasharray:none" />
      <path
         d="M 13.5185,9.5185 2.4815,9.4815"
         id="path2855"
         style="opacity:0.15;fill:none;stroke:#ffffff;stroke-width:0.963;stroke-linecap:square;stroke-linejoin:round;stroke-miterlimit:4;stroke-opacity:1;stroke-dasharray:none" />
      <path
         d="M 13.5185,7.5185 2.4815,7.4815"
         id="path2857"
         style="opacity:0.15;fill:none;stroke:#ffffff;stroke-width:0.963;stroke-linecap:square;stroke-linejoin:round;stroke-miterlimit:4;stroke-opacity:1;stroke-dasharray:none" />
      <path
         d="M 13.5185,5.5185 2.4815,5.4815"
         id="path2861"
         style="opacity:0.15;fill:none;stroke:#ffffff;stroke-width:0.963;stroke-linecap:square;stroke-linejoin:round;stroke-miterlimit:4;stroke-opacity:1;stroke-dasharray:none" />
    </g>
    <g
       id="g2890"
       style="opacity:0.81000001">
      <path
         d="M 3.5184999,1.4815021 3.4814999,14.5185"
         id="path3332"
         style="opacity:0.15;fill:none;stroke:#ffffff;stroke-width:0.96299982;stroke-linecap:square;stroke-linejoin:round;stroke-miterlimit:4;stroke-opacity:1;stroke-dasharray:none" />
      <path
         d="M 11.5185,5.4815021 11.4815,14.5185"
         id="path2849"
         style="opacity:0.15;fill:none;stroke:#ffffff;stroke-width:0.96299982;stroke-linecap:square;stroke-linejoin:round;stroke-miterlimit:4;stroke-opacity:1;stroke-dasharray:none" />
      <path
         d="M 5.5184999,1.4815021 5.4814999,14.5185"
         id="path2863"
         style="opacity:0.15;fill:none;stroke:#ffffff;stroke-width:0.96299982;stroke-linecap:square;stroke-linejoin:round;stroke-miterlimit:4;stroke-opacity:1;stroke-dasharray:none" />
      <path
         d="M 7.5184999,1.4815021 7.4814999,14.5185"
         id="path2865"
         style="opacity:0.15;fill:none;stroke:#ffffff;stroke-width:0.96299982;stroke-linecap:square;stroke-linejoin:round;stroke-miterlimit:4;stroke-opacity:1;stroke-dasharray:none" />
      <path
         d="M 9.5184995,1.4815021 9.4814995,14.5185"
         id="path2867"
         style="opacity:0.15;fill:none;stroke:#ffffff;stroke-width:0.96299982;stroke-linecap:square;stroke-linejoin:round;stroke-miterlimit:4;stroke-opacity:1;stroke-dasharray:none" />
    </g>
    <path
       d="M 7.0137142,7.7479187 C 6.5671783,8.0760779 6.6199594,8.938013 7.1069943,9.1931401 8.2170374,9.6382991 8.9369978,9.0064521 9.1994378,7.8340563 9.2066698,7.6612808 9.265572,7.4073411 9.032964,7.4866008 8.3362128,7.4494721 7.6722838,7.502403 7.0137142,7.7479187 z M 9.9999994,7.1632219 C 10,8.0695349 10,8.9758468 10,9.8821601 c -0.264746,0 -0.529494,0 -0.79424,0 C 9.190138,9.6814131 9.237349,9.2543531 9.181542,9.1983331 8.8705878,9.6984731 8.328223,9.9696381 7.7881788,9.9957041 6.3401274,10.072753 5.7059686,9.1066201 6.1289505,7.6407884 6.9409538,6.7117016 8.1035543,6.8736076 9.1849142,6.8732014 9.138416,5.3225225 7.3612954,5.67491 6.4147798,5.9821339 6.1638321,6.1676142 6.3079382,5.7148889 6.270523,5.5556453 6.1836716,5.2060072 6.6078988,5.261611 6.8080522,5.1591751 7.5370618,4.9651039 8.334191,4.9086349 9.0435211,5.2196332 9.7863854,5.6209481 9.9418934,6.3409759 9.999998,7.1632217 z"
       id="text34519"
       style="font-size:4px;font-style:normal;font-weight:normal;opacity:0.9;fill:#ffffff;fill-opacity:1;stroke:none;font-family:Bitstream Vera Sans" />
    <path
       d="M 9.5,0.4979205 C 9.5,2.041279 9.5,4.5 9.5,4.5 c 0,0 4.080603,0 5.00208,0 0,-1.9018156 -3.00574,-4.0020795 -5.00208,-4.0020795 z"
       id="path12038"
       style="fill:url(#linearGradient4543);fill-opacity:1;fill-rule:evenodd;stroke:url(#linearGradient4565);stroke-width:0.9952535;stroke-linecap:butt;stroke-linejoin:round;stroke-miterlimit:4;stroke-opacity:1;stroke-dasharray:none;display:inline" />
    <g
       id="g2916">
      <path
         d="m 4.5184999,2.4814999 -0.037,5.0369991"
         id="path3556"
         style="opacity:0.72000002;fill:none;stroke:#ffffff;stroke-width:0.96299988;stroke-linecap:square;stroke-linejoin:round;stroke-miterlimit:4;stroke-opacity:1;stroke-dasharray:none" />
      <path
         d="m 3.5184999,3.5000001 3.963,0.0185"
         id="path3698"
         style="opacity:0.72000002;fill:none;stroke:#ffffff;stroke-width:0.96299988;stroke-linecap:square;stroke-linejoin:round;stroke-miterlimit:4;stroke-opacity:1;stroke-dasharray:none" />
      <path
         d="M 11.4815,13.518499 11.5185,8.4815"
         id="path3700"
         style="opacity:0.72000002;fill:none;stroke:#ffffff;stroke-width:0.96299988;stroke-linecap:square;stroke-linejoin:round;stroke-miterlimit:4;stroke-opacity:1;stroke-dasharray:none" />
      <path
         d="M 12.4445,12.5185 8.4815,12.5"
         id="path3702"
         style="opacity:0.72000002;fill:none;stroke:#ffffff;stroke-width:0.96299988;stroke-linecap:square;stroke-linejoin:round;stroke-miterlimit:4;stroke-opacity:1;stroke-dasharray:none" />
    </g>
  </g>
</svg>

<?xml version="1.0" encoding="UTF-8" standalone="no"?>
<!-- Created with Inkscape (http://www.inkscape.org/) -->
<svg id="svg3150" xmlns="http://www.w3.org/2000/svg" height="16" width="16" version="1.1" xmlns:xlink="http://www.w3.org/1999/xlink">
 <defs id="defs3152">
  <linearGradient id="linearGradient4547" y2="2.9062" gradientUnits="userSpaceOnUse" x2="-51.786" gradientTransform="matrix(.30004 0 0 .31205 21.157 -.37413)" y1="50.786" x1="-51.786">
   <stop id="stop2492" style="stop-color:#2e4a5a" offset="0"/>
   <stop id="stop2494" style="stop-color:#6e8796" offset="1"/>
  </linearGradient>
  <linearGradient id="linearGradient4545" y2="47.013" gradientUnits="userSpaceOnUse" x2="25.132" gradientTransform="matrix(.37156 0 0 .33344 -.91752 -.0025171)" y1="6.7287" x1="25.132">
   <stop id="stop3995" style="stop-color:#a3c0d0" offset="0"/>
   <stop id="stop4001" style="stop-color:#427da1" offset="1"/>
  </linearGradient>
  <linearGradient id="linearGradient4565" y2="5.8215" gradientUnits="userSpaceOnUse" x2="15.18" gradientTransform="matrix(.68443 0 0 .68201 -.21315 .15692)" y1="2.1849" x1="17.289">
   <stop id="stop4561" style="stop-color:#c0c0c0" offset="0"/>
   <stop id="stop4563" style="stop-color:#949492" offset="1"/>
  </linearGradient>
  <linearGradient id="linearGradient4543" y2="5.4565" gradientUnits="userSpaceOnUse" x2="36.358" gradientTransform="matrix(.37071 0 0 .35485 -.85666 -.048951)" y1="8.059" x1="32.892">
   <stop id="stop8591" style="stop-color:#fefefe" offset="0"/>
   <stop id="stop8593" style="stop-color:#cbcbcb" offset="1"/>
  </linearGradient>
 </defs>
 <g id="layer1">
  <path id="rect2594" style="stroke-linejoin:round;stroke:url(#linearGradient4547);stroke-width:.99525;fill:url(#linearGradient4545)" d="m1.4976 0.49763h7.9177c0.52277 0.16184 4.3537 2.6136 5.0871 3.8903v11.114h-13.005v-15.005z"/>
  <g id="g2897" style="opacity:0.81">
   <path id="path3296" style="opacity:.15;stroke-linejoin:round;stroke:#fff;stroke-linecap:square;stroke-width:.963;fill:none" d="m13.518 13.518-11.036-0.036"/>
   <path id="path2851" style="opacity:.15;stroke-linejoin:round;stroke:#fff;stroke-linecap:square;stroke-width:.963;fill:none" d="m13.518 11.518-11.036-0.036"/>
   <path id="path2853" style="opacity:.15;stroke-linejoin:round;stroke:#fff;stroke-linecap:square;stroke-width:.963;fill:none" d="m8.5 3.5175-6.0185-0.0365"/>
   <path id="path2855" style="opacity:.15;stroke-linejoin:round;stroke:#fff;stroke-linecap:square;stroke-width:.963;fill:none" d="m13.518 9.5185-11.036-0.037"/>
   <path id="path2857" style="opacity:.15;stroke-linejoin:round;stroke:#fff;stroke-linecap:square;stroke-width:.963;fill:none" d="m13.518 7.5185-11.036-0.037"/>
   <path id="path2861" style="opacity:.15;stroke-linejoin:round;stroke:#fff;stroke-linecap:square;stroke-width:.963;fill:none" d="m13.518 5.5185-11.036-0.037"/>
  </g>
  <g id="g2890" style="opacity:0.81">
   <path id="path3332" style="opacity:.15;stroke-linejoin:round;stroke:#fff;stroke-linecap:square;stroke-width:0.963;fill:none" d="m3.5185 1.4815-0.037 13.036"/>
   <path id="path2849" style="opacity:.15;stroke-linejoin:round;stroke:#fff;stroke-linecap:square;stroke-width:0.963;fill:none" d="m11.518 5.4815-0.036 9.0365"/>
   <path id="path2863" style="opacity:.15;stroke-linejoin:round;stroke:#fff;stroke-linecap:square;stroke-width:0.963;fill:none" d="m5.5185 1.4815-0.037 13.036"/>
   <path id="path2865" style="opacity:.15;stroke-linejoin:round;stroke:#fff;stroke-linecap:square;stroke-width:0.963;fill:none" d="m7.5185 1.4815-0.037 13.036"/>
   <path id="path2867" style="opacity:.15;stroke-linejoin:round;stroke:#fff;stroke-linecap:square;stroke-width:0.963;fill:none" d="m9.5185 1.4815-0.037 13.036"/>
  </g>
  <path id="text34519" style="opacity:.9;fill:#fff" d="m7.0137 7.7479c-0.4465 0.3282-0.3937 1.1901 0.0933 1.4452 1.11 0.4452 1.83-0.1866 2.0924-1.359 0.0073-0.1728 0.0662-0.4268-0.1664-0.3475-0.6968-0.0371-1.3607 0.0158-2.0193 0.2613zm2.9863-0.5847v2.719h-0.79424c-0.0157-0.2008 0.0315-0.6278-0.0243-0.6839-0.3109 0.5002-0.8533 0.7713-1.3933 0.7974-1.4481 0.0773-2.0822-0.8891-1.6592-2.3549 0.812-0.9291 1.9746-0.7672 3.0559-0.7676-0.0465-1.5507-1.8236-1.1983-2.7701-0.8911-0.251 0.1855-0.1069-0.2672-0.1443-0.4265-0.0868-0.3496 0.3374-0.294 0.5376-0.3964 0.729-0.1941 1.5261-0.2506 2.2354 0.0604 0.7429 0.4013 0.8984 1.1214 0.9565 1.9436z"/>
  <path id="path12038" style="stroke-linejoin:round;fill-rule:evenodd;stroke:url(#linearGradient4565);stroke-width:.99525;fill:url(#linearGradient4543)" d="m9.5 0.49792v4.0021h5.0021c0-1.9018-3.0057-4.0021-5.0021-4.0021z"/>
  <g id="g2916">
   <path id="path3556" style="opacity:0.72;stroke-linejoin:round;stroke:#fff;stroke-linecap:square;stroke-width:0.963;fill:none" d="m4.5185 2.4815-0.037 5.037"/>
   <path id="path3698" style="opacity:0.72;stroke-linejoin:round;stroke:#fff;stroke-linecap:square;stroke-width:0.963;fill:none" d="m3.5185 3.5 3.963 0.0185"/>
   <path id="path3700" style="opacity:0.72;stroke-linejoin:round;stroke:#fff;stroke-linecap:square;stroke-width:0.963;fill:none" d="m11.482 13.518 0.036-5.0365"/>
   <path id="path3702" style="opacity:0.72;stroke-linejoin:round;stroke:#fff;stroke-linecap:square;stroke-width:0.963;fill:none" d="m12.444 12.518-3.9625-0.018"/>
  </g>
 </g>
</svg>
